icons/default/Liked.svg

<path d="M5 10.5H3L2.5 21.5L8 21L20 21.5L21 9.5L13 10.5L12 4L11 3.5L10.5 5L8 9.5L5 10.5Z" fill="url(#paint0_linear)"
	stroke="url(#paint1_linear)" />
<path fill-rule="evenodd" clip-rule="evenodd"
	d="M12.1204 6.92608C12.1681 6.28661 12.1901 5.87659 12.194 5.42441C12.2048 4.17104 11.9884 3.75604 11.2483 3.84303C10.6766 7.04801 9.25786 9.8128 7 12.115V19.8522C7.72835 20.6622 8.68772 21.0711 9.93513 21.0993C13.2949 21.1267 15.7796 21.1267 17.3858 21.0994C19.2274 21.068 19.6509 20.7814 20.0415 19.5601C20.5727 17.8992 21.1414 13.0821 20.9648 10.7809C20.9112 10.082 20.8534 10.0141 20.5612 9.99677C20.3087 9.98177 19.9367 10.0277 19.378 10.1445C19.1472 10.1927 18.4202 10.3625 17.9128 10.481C17.6766 10.5362 17.488 10.5803 17.4192 10.5957C16.9514 10.7011 16.5261 10.7895 16.0994 10.868C14.2243 11.2127 13.0457 11.0159 12.4207 10.0233C11.9842 9.32997 11.9745 8.88142 12.1204 6.92608ZM6.70175 22.1291C7.60969 22.6928 8.68377 22.9915 9.90316 23.019C13.2939 23.0468 15.7937 23.0468 17.4212 23.0191C20.1041 22.9734 21.3011 22.1633 21.9534 20.1237C22.5573 18.2352 23.1543 13.1793 22.9594 10.6398C22.8379 9.05751 22.0768 8.16312 20.6847 8.08043C20.2042 8.05189 19.6773 8.11687 18.9523 8.26847C18.6924 8.32282 17.9094 8.50575 17.4004 8.62467C17.1856 8.67484 17.0197 8.71361 16.9623 8.72652C16.5195 8.82628 16.1204 8.9092 15.7232 8.98224C15.0576 9.10462 14.5884 9.13143 14.3011 9.08344C14.1637 9.0605 14.144 9.04864 14.1324 9.03008C14.0202 8.85199 14.0116 8.4531 14.1153 7.06327C14.1658 6.3866 14.1896 5.94232 14.1939 5.44036C14.2179 2.67179 12.6585 1.36556 10.0635 2.14329C9.69248 2.25448 9.42219 2.56195 9.3704 2.93173C9.02051 5.42968 8.12237 7.61575 6.67089 9.50431C6.31318 8.98354 5.6984 8.63988 5 8.63988H3C1.89543 8.63988 1 9.4995 1 10.5599V21.1199C1 22.1803 1.89543 23.0399 3 23.0399H5C5.71892 23.0399 6.34924 22.6757 6.70175 22.1291ZM5 20.1784C4.99992 20.1855 4.99992 20.1926 5 20.1998V21.1199H3V10.5599H5V11.7275C5 11.7276 5 11.7277 5 11.7278V20.1784Z"
	fill="#121212" />
<defs>
	<linearGradient id="paint0_linear" x1="11.75" y1="3.5" x2="11.75" y2="21.5" gradientUnits="userSpaceOnUse">
		<stop stop-color="#FFB9B9" />
		<stop offset="1" stop-color="#FFBA7B" />
	</linearGradient>
	<linearGradient id="paint1_linear" x1="11.75" y1="3.5" x2="11.75" y2="21.5" gradientUnits="userSpaceOnUse">
		<stop stop-color="#FDB093" />
		<stop offset="0.473958" stop-color="#FEB898" />
		<stop offset="0.817708" stop-color="#FEDAA0" />
		<stop offset="1" stop-color="#FBD5C0" />
		<stop offset="1" stop-color="#FFDF9F" />
	</linearGradient>
</defs>

<path d="M5 10.5H3l-.5 11L8 21l12 .5 1-12-8 1L12 4l-1-.5-.5 1.5L8 9.5l-3 1Z" fill="url(#a)" stroke="url(#b)"/><path fill-rule="evenodd" clip-rule="evenodd" d="M12.12 6.926c.048-.64.07-1.05.074-1.502.01-1.253-.206-1.668-.946-1.581-.571 3.205-1.99 5.97-4.248 8.272v7.737c.728.81 1.688 1.22 2.935 1.247 3.36.028 5.845.028 7.45 0 1.842-.031 2.266-.318 2.656-1.539.532-1.66 1.1-6.478.924-8.78-.054-.698-.112-.766-.404-.783-.252-.015-.624.03-1.183.148-.23.048-.958.218-1.465.336-.236.055-.425.1-.494.115-.468.105-.893.194-1.32.272-1.875.345-3.053.148-3.678-.845-.437-.693-.446-1.142-.3-3.097ZM6.702 22.13c.908.564 1.982.862 3.201.89 3.39.028 5.89.028 7.518 0 2.683-.046 3.88-.856 4.532-2.895.604-1.889 1.201-6.945 1.006-9.484-.121-1.582-.882-2.477-2.274-2.56-.48-.028-1.008.037-1.733.188-.26.055-1.043.238-1.552.357l-.438.102c-.442.1-.842.182-1.239.255-.665.123-1.135.15-1.422.101-.137-.023-.157-.034-.169-.053-.112-.178-.12-.577-.017-1.967.05-.676.075-1.12.079-1.623.024-2.768-1.536-4.074-4.13-3.297a.972.972 0 0 0-.694.789c-.35 2.498-1.248 4.684-2.7 6.572A2.02 2.02 0 0 0 5 8.64H3c-1.105 0-2 .86-2 1.92v10.56c0 1.06.895 1.92 2 1.92h2c.719 0 1.35-.364 1.702-.91ZM5 20.18V21.118H3V10.56h2v9.619Z" fill="#121212"/><defs><linearGradient id="a" x1="11.75" y1="3.5" x2="11.75" y2="21.5" gradientUnits="userSpaceOnUse"><stop stop-color="#FFB9B9"/><stop offset="1" stop-color="#FFBA7B"/></linearGradient><linearGradient id="b" x1="11.75" y1="3.5" x2="11.75" y2="21.5" gradientUnits="userSpaceOnUse"><stop stop-color="#FDB093"/><stop offset=".474" stop-color="#FEB898"/><stop offset=".818" stop-color="#FEDAA0"/><stop offset="1" stop-color="#FBD5C0"/><stop offset="1" stop-color="#FFDF9F"/></linearGradient></defs>
